X:1
T: Haud awa' frae me Donald
C:
R:Strathspey
Q: 128
K:G
M:4/4
L:1/16
|:GE3 G4 DB,3 D4|GE3 G3A B4 AB3|GE3 G4 DB,3 D4|GE3 G3A B4 AG3|
GE3 G4 DB,3 D4|GE3 G3A B4 AB3|GE3 G4 DB,3 D4|GE3 G3A B4|AG3|
A3B d3e dB3 AG3|A3B d3e B4 AG3|A3B d3e dB3 AB3|GE3 G3A B4 AG3|
A3B d3e dB3 AG3|A3B d3e B4 AG3|A3B d3e dB3 AB3|GE3 G3A B4 AG3:|
